X:1155
T:Fiol i spann
T:Svenska L\aatar, Sk\aane nr 1124
C:anon.
O:Sweden
B:Svenska L\aatar, Sk\aane nr 1124
R:Folia
Z:efter Nils J\"onsson. Transcribed by Sigfrid Lundberg
F:http://abc.musicaviva.com/tunes/sweden/jonsson-fiol-i-spann.abc
%Posted May 29th 2000 at abcusers by Sigfrid Lundberg
M:3/4
L:1/8
K:C
A>d d2 - d2 |d>^c cd - cA     |A>^c d2- de    | {fa}f>g - fe e2|
A2 fe - f(a | g)f - ed    eg  | fe - dd - ^ce | d2 - d2 d2 :|
|: A2 a2 aa | a2    g>f - g>e | f>g - fe - fa |
   gf ed eg | f>e - dd - ^ce  | d2 - d2 d2   :|
%
%Sigfrid Lundberg translates "Fiol i spann" as "Violin in a bucket"
%(it can also mean "Violet in a bucket"). The strange title is simply
%a Swedish approximation to the orginial title "Folia d'Espagne".
W:
W:
W:  From Musica Viva - http://www.musicaviva.com
W:  the Internet center for free sheet music downloads.


